X: 979
T: Hatırlar mısın Beni
C: Vecdi Seyhun
O: Turkey
F: http://compmusic.upf.edu/node/140
N: nihavent--sarki--aksak--hatirlar_misin_beni--vecdi_seyhun
N: makam= nihavent
N: form= sarki
N: usul= aksak = 9/8
M: 9/8
L: 1/16
K: C _B _e  
Q: 1/4=192
%%MIDI tuningsystem comma53
D4 G4 B2A2 A4 G2 | ^F4A2 G2G8z2  | c4 d2e2 g4 f4 d2 | \
w:  ARANAĞME  |   |   | 
e2 d2c4{e}d8z2  | 
w:   | 
f4 g2a2 b2a2 g4 f2 | e2 d2d2 c2B8z2  | \
w:   |   | 
d4 c2{d}c2 B2{c}B2 A4 c2 | B2 {c}B2A2 {B}A2G4^F2 E2D2  | 
w:   |   | 
D4 G4 B2A2 A4 G2 | ^F4A2 G2G8z2  | c4 d2e2 g4 f4 d2 | \
w:  ARANAĞME  |   |   | 
e2 d2c4{e}d8z2  | 
w:   | 
f4 g2a2 b2a2 g4 f2 | e2 d2d2 c2B8z2  | \
w:   |   | 
d4 c2{d}c2 B2{c}B2 A4 c2 | B2 {c}B2A2 {B}A2G4z6  | 
w:   |   | 
G4 G2A2 B4 A4 G2 | ^F4A4G8z2  | c4 d2e2 f4 e4 d2 | \
w:  *  Ha tır lar mı  |  sın be ni  |  bir *  *  za  | 
c4e2 d2d4c2 B2A2  | 
w:  man *  *  lar SAZ  | 
G4 G2A2 B4 A4 G2 | ^F4A4G8z2  | c4 d2e2 f4 e4 d2 | \
w:  *  Ha tır lar mı  |  sın be ni  |  bir *  *  za  | 
c4e2 d2d4c2 B2c2  | 
w:  man *  *  lar SAZ  | 
d4 f2g2 a4 b2a2 g2 | f4g4e8z2  | a4 g2{a}g2 f2{g}f2 e4 f2 | \
w:  *  Ne  ka dar  se  |  ver *  dim   |  se *  *  *  ni   | 
f2 {g}f2e2 {f}e2d4c2 B2c2  | 
w:  ne  *  *  ka *  *  dar   SAZ  | 
d4 B2c2 d4 e4 d2 | c4d4B8z2  | d4 c2{d}c2 B2{c}B2 A4 c2 | \
w:  *  Ne  ka dar  se  |  ver *  dim   |  se *  *  *  ni   | 
B2 {c}B2A2 {B}A2G4d2 e2^f2  | 
w:  ne  *  *  ka *  *  dar   SAZ  | 
g4 ^f2g2 a4 b2a2 g2 | ^f4a2 g2g8-g2  | \
w:  *  Gö *  züm de   |  gü neş *  tin   | 
b4 b2a2 g2^f2 g4 a2 | ba b2c'b c'2d'8z2  | 
w:  gön *  *  lüm  |  de  *  *  ba *  *  har    | 
z4 c'2b2 a4 b2a2 g2 | ^f4{a}g2 f2f8-f2  | \
w:  Gö *  züm de   |  gü *  neş *  tin   | 
g4 ^f2e2 d2^c2 d4 e2 | ^f4e2 d2d4c2 B2c2  | 
w:  gön *  *  lüm  |  de  ba *  har    | 
d4 f2g2 a4 b2a2 g2 | f4g4e8z2  | a4 g2{a}g2 f2{g}f2 e4 f2 | \
w:  *  Ne  ka dar  se  |  ver *  dim   |  se *  *  *  ni   | 
f2 {g}f2e2 {f}e2d4c2 B2c2  | 
w:  ne  *  *  ka *  *  dar   SAZ  | 
d4 B2c2 d4 e4 d2 | c4d4B8z2  | d4 c2{d}c2 B2{c}B2 A4 c2 | \
w:  *  Ne  ka dar  se  |  ver *  dim   |  se *  *  *  ni   | 
B2 {c}B2A2 {B}A2G4|
w:  ne  *  *  ka *  *  dar    | 


